svg/emoji_u1f9f9.svg

<?xml version="1.0" encoding="UTF-8" standalone="no"?>
<!-- Generator: Adobe Illustrator 25.2.3, SVG Export Plug-In . SVG Version: 6.00 Build 0)  -->

<svg
   version="1.1"
   id="Layer_1"
   x="0px"
   y="0px"
   viewBox="0 0 128 128"
   style="enable-background:new 0 0 128 128;"
   xml:space="preserve"
   sodipodi:docname="emoji_u1f9f9.svg"
   inkscape:version="1.2.2 (732a01da63, 2022-12-09)"
   xmlns:inkscape="http://www.inkscape.org/namespaces/inkscape"
   xmlns:sodipodi="http://sodipodi.sourceforge.net/DTD/sodipodi-0.dtd"
   xmlns="http://www.w3.org/2000/svg"
   xmlns:svg="http://www.w3.org/2000/svg"><defs
   id="defs23269" /><sodipodi:namedview
   id="namedview23267"
   pagecolor="#ffffff"
   bordercolor="#000000"
   borderopacity="0.25"
   inkscape:showpageshadow="2"
   inkscape:pageopacity="0.0"
   inkscape:pagecheckerboard="0"
   inkscape:deskcolor="#d1d1d1"
   showgrid="false"
   inkscape:zoom="4.2421875"
   inkscape:cx="55.867403"
   inkscape:cy="58.93186"
   inkscape:window-width="1366"
   inkscape:window-height="697"
   inkscape:window-x="-8"
   inkscape:window-y="-8"
   inkscape:window-maximized="1"
   inkscape:current-layer="Layer_1" />
<g
   id="g23264">
	<g
   id="g23238">
		<g
   id="g23236">
			<path
   style="fill:#A65F3E;"
   d="M56.31,74.64c-0.88,0-1.71-0.34-2.34-0.97C53.35,73.05,53,72.22,53,71.33     c0-0.88,0.34-1.71,0.97-2.34l64.56-64.56c0.62-0.62,1.46-0.97,2.34-0.97s1.71,0.34,2.34,0.97c1.29,1.29,1.29,3.39,0,4.68     L58.65,73.67C58.02,74.3,57.19,74.64,56.31,74.64z"
   id="path23232" />
			<path
   style="fill:#A65F3E;"
   d="M120.87,4c0.71,0,1.42,0.27,1.96,0.81c1.08,1.08,1.08,2.84,0,3.93L58.27,73.3     c-0.54,0.54-1.25,0.81-1.96,0.81c-0.71,0-1.42-0.27-1.96-0.81c-1.08-1.08-1.08-2.84,0-3.93l64.56-64.56     C119.45,4.27,120.16,4,120.87,4 M120.87,2.94c-1.03,0-1.99,0.4-2.71,1.12L53.6,68.62c-0.73,0.72-1.12,1.69-1.12,2.71     c0,1.03,0.4,1.99,1.12,2.71c0.72,0.72,1.69,1.12,2.71,1.12c1.03,0,1.99-0.4,2.71-1.12l64.56-64.56c1.5-1.5,1.5-3.93,0-5.43     C122.86,3.34,121.89,2.94,120.87,2.94L120.87,2.94z"
   id="path23234" />
		</g>
	</g>
	<path
   style="fill:#FFE082;"
   d="M5.61,91.49l31.11,31.11c6.99-7.7,12.97-16.45,16.19-26.5c0.23-0.73,0.27-1.92,1.02-2.87   c3.61-4.53,14.92-16.06,5.65-25.33c-8.85-8.85-19.5,1.81-23.95,5.48c-1.36,1.13-3.07,1.83-4.85,2.21   C18.84,78.2,6.51,90.54,5.61,91.49z"
   id="path23240" />
	<path
   style="fill:#FFE082;"
   d="M59.07,60.61c0.77-0.4,1.87-0.9,3.15-0.68c0.78,0.14,1.89,1.08,3.04,2.23   c1.15,1.15,2.23,2.44,2.55,3.27c0.33,0.83-0.03,1.94-0.03,1.94c-0.93,1.84-3.07,5.52-4.8,4.99c-1.93-0.59-3.86-2.44-5.29-3.83   c-0.81-0.78-1.65-1.64-2.2-2.63c-0.77-1.41,0.06-2.59,1.03-3.57C57.21,61.67,58.38,60.97,59.07,60.61z"
   id="path23242" />
	
	
	<g
   id="g23250">
		<path
   style="fill:#A65F3E;"
   d="M62.67,73.4c0,0-3.5-6.6-8.13-8.59c0,0-0.17-0.43,0.16-0.8c0.41-0.46,0.96-0.56,1.25-0.37    c3.42,2.12,6.5,4.95,8.06,8.82C64.32,73.2,62.96,74.29,62.67,73.4z"
   id="path23248" />
	</g>
	<path
   style="fill:#f9c248;fill-opacity:1"
   d="M36.3,118.46c-0.8-1.25-1.94-2.4-2.54-3.66c-0.14-0.31-0.27-0.64-0.23-0.98   c0.07-0.64,1.04-1.21,1.49-1.59c0.68-0.58,1.37-1.15,2.03-1.76c1.3-1.19,2.51-2.51,3.35-4.07c0.14-0.25,0.26-0.56,0.13-0.82   c-0.28-0.52-1.9,1.22-2.2,1.49c-0.84,0.74-1.66,1.5-2.54,2.18c-1.17,0.9-3.38,2.43-4.95,1.7c-0.8-0.37-1.52-1.35-2.1-1.99   c-0.67-0.75-1.31-1.53-2.02-2.26c-1.02-1.06-2.06-2.1-3.11-3.12c-0.53-0.52-1.07-1.04-1.62-1.54c-0.41-0.37-0.49-0.53-0.03-0.98   c1.52-1.48,2.98-3.03,4.37-4.63c0.18-0.21,0.35-0.54,0.14-0.72c-0.15-0.13-0.39-0.04-0.56,0.05c-2.08,1.1-3.74,2.83-5.54,4.35   c-0.44,0.37-1.71-1.04-1.99-1.26c-0.74-0.59-1.23-0.82-0.37-1.69c3.87-3.92,7.78-7.56,12.43-10.58c0.86-0.55,1.76-1.12,2.25-2.02   c-0.09-0.24-0.44-0.21-0.69-0.12c-6.45,2.32-15.12,10.33-15.86,11.04c-1.3,1.26-3.63-1.65-7.08-3.85c-1.18-0.75,0-1.88,0.3-2.23   c2.08-2.46,4.83-5.14,4.83-5.14c-1.02,0.11-7.65,6.09-8.44,6.99c-0.67,0.77-1.35,1.47-1.4,2.54c-0.05,0.93,0.32,1.86,0.86,2.6   c6.16,8.4,20.69,22.35,25.84,26.03c3.07,2.19,4.02,1.79,5.27,0.54c0.65-0.65,0.96-1.48,0.84-2.4   C37.06,119.82,36.73,119.12,36.3,118.46z"
   id="path23252" />
	<g
   id="g23262">
		<g
   id="g23256">
			<path
   style="fill:#F44336;"
   d="M53.11,95.03c-4.22-6.54-13.04-15.49-19.68-20.19c-0.52-0.37,1.64-1.63,2.18-1.25     c6.9,4.91,14.03,12.4,18.48,19.19C54.45,93.31,53.36,95.41,53.11,95.03z"
   id="path23254" />
		</g>
		<g
   id="g23260">
			<path
   style="fill:#F44336;"
   d="M57.54,88.62c-4.05-5.69-12.17-13.91-17.9-18.5c-0.5-0.4,1.45-1.76,1.85-1.45     c6.04,4.82,13.35,11.99,17.44,18.11C59.23,87.23,57.83,89.03,57.54,88.62z"
   id="path23258" />
		</g>
	</g>
</g>
</svg>

<?xml version="1.0" encoding="UTF-8" standalone="no"?>
<!DOCTYPE svg PUBLIC "-//W3C//DTD SVG 1.1//EN" "http://www.w3.org/Graphics/SVG/1.1/DTD/svg11.dtd">
<svg width="100%" height="100%" viewBox="0 0 128 128" version="1.1" xmlns="http://www.w3.org/2000/svg" xmlns:xlink="http://www.w3.org/1999/xlink" xml:space="preserve" xmlns:serif="http://www.serif.com/" style="fill-rule:evenodd;clip-rule:evenodd;stroke-linejoin:round;stroke-miterlimit:2;">
    <g id="g23264">
        <g id="g23238">
            <g id="g23236">
                <path id="path23232" d="M56.31,74.64C55.43,74.64 54.6,74.3 53.97,73.67C53.35,73.05 53,72.22 53,71.33C53,70.45 53.34,69.62 53.97,68.99L118.53,4.43C119.15,3.81 119.99,3.46 120.87,3.46C121.75,3.46 122.58,3.8 123.21,4.43C124.5,5.72 124.5,7.82 123.21,9.11L58.65,73.67C58.02,74.3 57.19,74.64 56.31,74.64Z" style="fill:rgb(133,92,82);fill-rule:nonzero;"/>
                <path id="path23234" d="M120.87,4C121.58,4 122.29,4.27 122.83,4.81C123.91,5.89 123.91,7.65 122.83,8.74L58.27,73.3C57.73,73.84 57.02,74.11 56.31,74.11C55.6,74.11 54.89,73.84 54.35,73.3C53.27,72.22 53.27,70.46 54.35,69.37L118.91,4.81C119.45,4.27 120.16,4 120.87,4M120.87,2.94C119.84,2.94 118.88,3.34 118.16,4.06L53.6,68.62C52.87,69.34 52.48,70.31 52.48,71.33C52.48,72.36 52.88,73.32 53.6,74.04C54.32,74.76 55.29,75.16 56.31,75.16C57.34,75.16 58.3,74.76 59.02,74.04L123.58,9.48C125.08,7.98 125.08,5.55 123.58,4.05C122.86,3.34 121.89,2.94 120.87,2.94Z" style="fill:rgb(133,92,82);fill-rule:nonzero;"/>
            </g>
        </g>
        <path id="path23240" d="M5.61,91.49L36.72,122.6C43.71,114.9 49.69,106.15 52.91,96.1C53.14,95.37 53.18,94.18 53.93,93.23C57.54,88.7 68.85,77.17 59.58,67.9C50.73,59.05 40.08,69.71 35.63,73.38C34.27,74.51 32.56,75.21 30.78,75.59C18.84,78.2 6.51,90.54 5.61,91.49Z" style="fill:rgb(255,224,130);fill-rule:nonzero;"/>
        <path id="path23242" d="M59.07,60.61C59.84,60.21 60.94,59.71 62.22,59.93C63,60.07 64.11,61.01 65.26,62.16C66.41,63.31 67.49,64.6 67.81,65.43C68.14,66.26 67.78,67.37 67.78,67.37C66.85,69.21 64.71,72.89 62.98,72.36C61.05,71.77 59.12,69.92 57.69,68.53C56.88,67.75 56.04,66.89 55.49,65.9C54.72,64.49 55.55,63.31 56.52,62.33C57.21,61.67 58.38,60.97 59.07,60.61Z" style="fill:rgb(255,224,130);fill-rule:nonzero;"/>
        <g id="g23250">
            <path id="path23248" d="M62.67,73.4C62.67,73.4 59.17,66.8 54.54,64.81C54.54,64.81 54.37,64.38 54.7,64.01C55.11,63.55 55.66,63.45 55.95,63.64C59.37,65.76 62.45,68.59 64.01,72.46C64.32,73.2 62.96,74.29 62.67,73.4Z" style="fill:rgb(133,92,82);fill-rule:nonzero;"/>
        </g>
        <path id="path23252" d="M36.3,118.46C35.5,117.21 34.36,116.06 33.76,114.8C33.62,114.49 33.49,114.16 33.53,113.82C33.6,113.18 34.57,112.61 35.02,112.23C35.7,111.65 36.39,111.08 37.05,110.47C38.35,109.28 39.56,107.96 40.4,106.4C40.54,106.15 40.66,105.84 40.53,105.58C40.25,105.06 38.63,106.8 38.33,107.07C37.49,107.81 36.67,108.57 35.79,109.25C34.62,110.15 32.41,111.68 30.84,110.95C30.04,110.58 29.32,109.6 28.74,108.96C28.07,108.21 27.43,107.43 26.72,106.7C25.7,105.64 24.66,104.6 23.61,103.58C23.08,103.06 22.54,102.54 21.99,102.04C21.58,101.67 21.5,101.51 21.96,101.06C23.48,99.58 24.94,98.03 26.33,96.43C26.51,96.22 26.68,95.89 26.47,95.71C26.32,95.58 26.08,95.67 25.91,95.76C23.83,96.86 22.17,98.59 20.37,100.11C19.93,100.48 18.66,99.07 18.38,98.85C17.64,98.26 17.15,98.03 18.01,97.16C21.88,93.24 25.79,89.6 30.44,86.58C31.3,86.03 32.2,85.46 32.69,84.56C32.6,84.32 32.25,84.35 32,84.44C25.55,86.76 16.88,94.77 16.14,95.48C14.84,96.74 12.51,93.83 9.06,91.63C7.88,90.88 9.06,89.75 9.36,89.4C11.44,86.94 14.19,84.26 14.19,84.26C13.17,84.37 6.54,90.35 5.75,91.25C5.08,92.02 4.4,92.72 4.35,93.79C4.3,94.72 4.67,95.65 5.21,96.39C11.37,104.79 25.9,118.74 31.05,122.42C34.12,124.61 35.07,124.21 36.32,122.96C36.97,122.31 37.28,121.48 37.16,120.56C37.06,119.82 36.73,119.12 36.3,118.46Z" style="fill:rgb(255,179,0);fill-rule:nonzero;"/>
        <g id="g23262">
            <g id="g23256">
                <path id="path23254" d="M53.11,95.03C48.89,88.49 40.07,79.54 33.43,74.84C32.91,74.47 35.07,73.21 35.61,73.59C42.51,78.5 49.64,85.99 54.09,92.78C54.45,93.31 53.36,95.41 53.11,95.03Z" style="fill:rgb(230,81,0);fill-rule:nonzero;"/>
            </g>
            <g id="g23260">
                <path id="path23258" d="M57.54,88.62C53.49,82.93 45.37,74.71 39.64,70.12C39.14,69.72 41.09,68.36 41.49,68.67C47.53,73.49 54.84,80.66 58.93,86.78C59.23,87.23 57.83,89.03 57.54,88.62Z" style="fill:rgb(230,81,0);fill-rule:nonzero;"/>
            </g>
        </g>
    </g>
</svg>
